X:474
T:Scarborough Fair
M:3/4
L:1/4
K:D
"Em"E2 E|B2 B|"D"F>G F|"Em"E3|"G"z B d|"Em"e2 d|"A"B c A|"B"B3-|B z e|
"Em"e2 e|"G"d2 B|B A G|"D"F D2-|D2 z|"Em"E2 B|A2 G|"D"F E D|"Em"E3-|E2 z||

